X:1
T:Baginton, CM
T:Baginton, CM
T:Frederick Gooch (1804-1887)
T:Public Domain Courtesy of the Cyber Hymnal™
C:Frederick Gooch (1804-1887)
Z:Public Domain
Z:Courtesy of the Cyber Hymnal™
%%score ( 1 2 ) ( 3 4 )
L:1/8
Q:1/4=107
M:4/4
K:D
V:1 treble 
V:2 treble 
V:3 bass 
V:4 bass 
V:1
 D2 | [DF]2 [CE]2 D2 [DB]2 | [DA]2 [CG]2 [DF]2 [DF]2 | [CE]2 D2 [CE]2 [DF]2 | [CE]6 [Dd][Dd] | %5
 [Dc]2 B2 [DA]2 [DB]2 | [DA]2 [CG]2 [DF]2 [DF]2 | [B,E]2 D2 [A,D]2 [A,C]2 | [A,D]6 |] %9
V:2
 D2 | x4 D2 x2 | x8 | x2 D2 x4 | x8 | x2 (DC) x4 | x8 | x2 D2 x4 | x6 |] %9
V:3
 [D,F,]2 | [D,A,]2 [A,,G,]2 [D,F,]2 G,2 | [F,A,]2 [E,A,]2 [D,A,]2 [D,A,]2 | %3
 [G,A,]2 [F,A,]2 [E,A,]2 [D,A,]2 | A,6 [B,D][B,D] | [A,D]2 (DE) [F,A,]2 [G,D]2 | %6
 [F,A,]2 [E,A,]2 [D,A,]2 [D,A,]2 | [G,,G,]2 (F,G,) (E,F,) [A,,G,]2 | [D,F,]6 |] %9
V:4
 x2 | x6 G,2 | x8 | x8 | A,6 x2 | x2 G,2 x4 | x8 | x2 B,,2 A,,2 x2 | x6 |] %9

